images/usecases/scada/food-1.svg

<svg width="261" height="322" fill="none" xmlns="http://www.w3.org/2000/svg"><rect x="63.75" y="120.75" width="186.5" height="186.5" rx="93.25" stroke="#91A3BE" stroke-width="1.5"/><path fill-rule="evenodd" clip-rule="evenodd" d="M127.621 200.793c0-1.191.965-2.156 2.156-2.156h18.688a2.156 2.156 0 1 1 0 4.312h-1.852a13.21 13.21 0 0 0 .017 2.663c.193 1.708.753 3.119 1.735 3.987 3.438 3.038 4.888 6.485 5.187 8.153.023.126.034.253.034.381v19.316a2.156 2.156 0 0 1-2.156 2.156h-25.157a2.156 2.156 0 0 1 0-4.312h23V218.36c-.214-.85-1.198-3.262-3.763-5.529-2.108-1.863-2.912-4.495-3.165-6.732a17.275 17.275 0 0 1-.058-3.15h-12.51a2.156 2.156 0 0 1-2.156-2.156Z" fill="#305680"/><path fill-rule="evenodd" clip-rule="evenodd" d="M135.016 200.283a2.156 2.156 0 0 0-2.095-1.646h-3.684a2.156 2.156 0 0 0 0 4.312h1.852c.074.804.09 1.731-.016 2.663-.194 1.708-.753 3.119-1.736 3.987-3.438 3.038-4.887 6.485-5.187 8.153a2.212 2.212 0 0 0-.034.381v19.316a2.157 2.157 0 0 0 4.313 0V218.36c.215-.85 1.198-3.262 3.764-5.529 2.108-1.863 2.911-4.495 3.165-6.732.256-2.259-.006-4.439-.342-5.816ZM163.738 200.793c0-1.191.966-2.156 2.157-2.156h18.687a2.156 2.156 0 1 1 0 4.312h-1.851c-.075.804-.09 1.731.016 2.663.193 1.708.753 3.119 1.736 3.987 3.437 3.038 4.887 6.485 5.186 8.153.023.126.034.253.034.381v19.316a2.156 2.156 0 0 1-2.156 2.156h-25.156a2.157 2.157 0 1 1 0-4.312h23V218.36c-.215-.85-1.199-3.262-3.764-5.529-2.108-1.863-2.911-4.495-3.165-6.732a17.275 17.275 0 0 1-.058-3.15h-12.509a2.157 2.157 0 0 1-2.157-2.156Z" fill="#305680"/><path fill-rule="evenodd" clip-rule="evenodd" d="M171.133 200.283a2.155 2.155 0 0 0-2.095-1.646h-3.683a2.157 2.157 0 1 0 0 4.312h1.851c.074.804.09 1.731-.016 2.663-.194 1.708-.753 3.119-1.736 3.987-3.438 3.038-4.887 6.485-5.187 8.153a2.211 2.211 0 0 0-.033.381v19.316a2.156 2.156 0 1 0 4.312 0V218.36c.215-.85 1.198-3.262 3.764-5.529 2.108-1.863 2.911-4.495 3.165-6.732.256-2.259-.006-4.439-.342-5.816Z" fill="#305680"/><path fill-rule="evenodd" clip-rule="evenodd" d="M191.5 239.605h-69a7.188 7.188 0 1 0 0 14.375h69a7.188 7.188 0 1 0 0-14.375Zm-69-4.312c-6.351 0-11.5 5.149-11.5 11.5s5.149 11.5 11.5 11.5h69c6.351 0 11.5-5.149 11.5-11.5s-5.149-11.5-11.5-11.5h-69Z" fill="#305680"/><path d="M130.406 246.793a2.156 2.156 0 1 1-4.311 0 2.156 2.156 0 0 1 4.311 0ZM141.906 246.793a2.156 2.156 0 1 1-4.311 0 2.156 2.156 0 0 1 4.311 0ZM153.406 246.793a2.156 2.156 0 1 1-4.311 0 2.156 2.156 0 0 1 4.311 0ZM164.906 246.793a2.156 2.156 0 1 1-4.311 0 2.156 2.156 0 0 1 4.311 0ZM176.406 246.793a2.156 2.156 0 1 1-4.311 0 2.156 2.156 0 0 1 4.311 0ZM187.906 246.793a2.156 2.156 0 1 1-4.311 0 2.156 2.156 0 0 1 4.311 0Z" fill="#305680"/><path fill-rule="evenodd" clip-rule="evenodd" d="M111 177.973c0-1.191.965-2.157 2.156-2.157h54.985a2.157 2.157 0 0 1 0 4.313h-54.985a2.156 2.156 0 0 1-2.156-2.156Zm68.102 0c0-1.191.965-2.157 2.156-2.157h19.586a2.157 2.157 0 0 1 0 4.313h-19.586a2.156 2.156 0 0 1-2.156-2.156ZM174.789 181.836c1.191 0 2.156.965 2.156 2.156v5.75a2.156 2.156 0 1 1-4.312 0v-5.75c0-1.191.965-2.156 2.156-2.156Z" fill="#305680"/><path fill-rule="evenodd" clip-rule="evenodd" d="M174.969 181.926a3.953 3.953 0 1 0 0-7.906 3.953 3.953 0 0 0 0 7.906Zm0 4.312c4.565 0 8.265-3.7 8.265-8.265a8.265 8.265 0 1 0-16.531 0 8.265 8.265 0 0 0 8.266 8.265Z" fill="#305680"/><path d="M0 212h43M150.75 24v80" stroke="#91A3BE" stroke-width="1.5"/><path d="M42 212.725a109.504 109.504 0 0 1 67.388-101.303A109.495 109.495 0 0 1 151.275 103l.003 1.552a107.943 107.943 0 0 0-99.594 66.843 107.95 107.95 0 0 0-8.132 41.327l-1.552.003Z" fill="#91A3BE"/><circle cx="151" cy="12" r="11.25" fill="#F7F9FC" stroke="#91A3BE" stroke-width="1.5"/></svg>

<svg width="261" height="322" viewBox="0 0 261 322" fill="none" xmlns="http://www.w3.org/2000/svg">
<rect x="63.75" y="120.75" width="186.5" height="186.5" rx="93.25" stroke="#91A3BE" stroke-width="1.5"/>
<path fill-rule="evenodd" clip-rule="evenodd" d="M127.621 200.793C127.621 199.602 128.586 198.637 129.777 198.637H148.465C149.656 198.637 150.621 199.602 150.621 200.793C150.621 201.984 149.656 202.949 148.465 202.949H146.613C146.539 203.753 146.524 204.68 146.63 205.612C146.823 207.32 147.383 208.731 148.365 209.599C151.803 212.637 153.253 216.084 153.552 217.752C153.575 217.878 153.586 218.005 153.586 218.133V237.449C153.586 238.64 152.621 239.605 151.43 239.605H126.273C125.083 239.605 124.117 238.64 124.117 237.449C124.117 236.258 125.083 235.293 126.273 235.293H149.273V218.36C149.059 217.51 148.075 215.098 145.51 212.831C143.402 210.968 142.598 208.336 142.345 206.099C142.22 205.003 142.218 203.925 142.287 202.949H129.777C128.586 202.949 127.621 201.984 127.621 200.793Z" fill="#305680"/>
<path fill-rule="evenodd" clip-rule="evenodd" d="M135.016 200.283C134.781 199.317 133.915 198.637 132.921 198.637H129.237C128.047 198.637 127.081 199.602 127.081 200.793C127.081 201.984 128.047 202.949 129.237 202.949H131.089C131.163 203.753 131.179 204.68 131.073 205.612C130.879 207.32 130.32 208.731 129.337 209.599C125.899 212.637 124.45 216.084 124.15 217.752C124.128 217.878 124.116 218.005 124.116 218.133V237.449C124.116 238.64 125.082 239.605 126.273 239.605C127.464 239.605 128.429 238.64 128.429 237.449V218.36C128.644 217.51 129.627 215.098 132.193 212.831C134.301 210.968 135.104 208.336 135.358 206.099C135.614 203.84 135.352 201.66 135.016 200.283Z" fill="#305680"/>
<path fill-rule="evenodd" clip-rule="evenodd" d="M163.738 200.793C163.738 199.602 164.704 198.637 165.895 198.637H184.582C185.773 198.637 186.738 199.602 186.738 200.793C186.738 201.984 185.773 202.949 184.582 202.949H182.731C182.656 203.753 182.641 204.68 182.747 205.612C182.94 207.32 183.5 208.731 184.483 209.599C187.92 212.637 189.37 216.084 189.669 217.752C189.692 217.878 189.703 218.005 189.703 218.133V237.449C189.703 238.64 188.738 239.605 187.547 239.605H162.391C161.2 239.605 160.234 238.64 160.234 237.449C160.234 236.258 161.2 235.293 162.391 235.293H185.391V218.36C185.176 217.51 184.192 215.098 181.627 212.831C179.519 210.968 178.716 208.336 178.462 206.099C178.337 205.003 178.335 203.925 178.404 202.949H165.895C164.704 202.949 163.738 201.984 163.738 200.793Z" fill="#305680"/>
<path fill-rule="evenodd" clip-rule="evenodd" d="M171.133 200.283C170.898 199.317 170.033 198.637 169.038 198.637H165.355C164.164 198.637 163.198 199.602 163.198 200.793C163.198 201.984 164.164 202.949 165.355 202.949H167.206C167.28 203.753 167.296 204.68 167.19 205.612C166.996 207.32 166.437 208.731 165.454 209.599C162.016 212.637 160.567 216.084 160.267 217.752C160.245 217.878 160.234 218.005 160.234 218.133V237.449C160.234 238.64 161.199 239.605 162.39 239.605C163.581 239.605 164.546 238.64 164.546 237.449V218.36C164.761 217.51 165.744 215.098 168.31 212.831C170.418 210.968 171.221 208.336 171.475 206.099C171.731 203.84 171.469 201.66 171.133 200.283Z" fill="#305680"/>
<path fill-rule="evenodd" clip-rule="evenodd" d="M191.5 239.605H122.5C118.53 239.605 115.312 242.823 115.312 246.793C115.312 250.763 118.53 253.98 122.5 253.98H191.5C195.47 253.98 198.688 250.763 198.688 246.793C198.688 242.823 195.47 239.605 191.5 239.605ZM122.5 235.293C116.149 235.293 111 240.442 111 246.793C111 253.144 116.149 258.293 122.5 258.293H191.5C197.851 258.293 203 253.144 203 246.793C203 240.442 197.851 235.293 191.5 235.293H122.5Z" fill="#305680"/>
<path d="M130.406 246.793C130.406 247.984 129.441 248.949 128.25 248.949C127.059 248.949 126.094 247.984 126.094 246.793C126.094 245.602 127.059 244.637 128.25 244.637C129.441 244.637 130.406 245.602 130.406 246.793Z" fill="#305680"/>
<path d="M141.906 246.793C141.906 247.984 140.941 248.949 139.75 248.949C138.559 248.949 137.594 247.984 137.594 246.793C137.594 245.602 138.559 244.637 139.75 244.637C140.941 244.637 141.906 245.602 141.906 246.793Z" fill="#305680"/>
<path d="M153.406 246.793C153.406 247.984 152.441 248.949 151.25 248.949C150.059 248.949 149.094 247.984 149.094 246.793C149.094 245.602 150.059 244.637 151.25 244.637C152.441 244.637 153.406 245.602 153.406 246.793Z" fill="#305680"/>
<path d="M164.906 246.793C164.906 247.984 163.941 248.949 162.75 248.949C161.559 248.949 160.594 247.984 160.594 246.793C160.594 245.602 161.559 244.637 162.75 244.637C163.941 244.637 164.906 245.602 164.906 246.793Z" fill="#305680"/>
<path d="M176.406 246.793C176.406 247.984 175.441 248.949 174.25 248.949C173.059 248.949 172.094 247.984 172.094 246.793C172.094 245.602 173.059 244.637 174.25 244.637C175.441 244.637 176.406 245.602 176.406 246.793Z" fill="#305680"/>
<path d="M187.906 246.793C187.906 247.984 186.941 248.949 185.75 248.949C184.559 248.949 183.594 247.984 183.594 246.793C183.594 245.602 184.559 244.637 185.75 244.637C186.941 244.637 187.906 245.602 187.906 246.793Z" fill="#305680"/>
<path fill-rule="evenodd" clip-rule="evenodd" d="M111 177.973C111 176.782 111.965 175.816 113.156 175.816L168.141 175.816C169.331 175.816 170.297 176.782 170.297 177.973C170.297 179.164 169.331 180.129 168.141 180.129L113.156 180.129C111.965 180.129 111 179.164 111 177.973ZM179.102 177.973C179.102 176.782 180.067 175.816 181.258 175.816L200.844 175.816C202.035 175.816 203 176.782 203 177.973C203 179.164 202.035 180.129 200.844 180.129L181.258 180.129C180.067 180.129 179.102 179.164 179.102 177.973Z" fill="#305680"/>
<path fill-rule="evenodd" clip-rule="evenodd" d="M174.789 181.836C175.98 181.836 176.945 182.801 176.945 183.992V189.742C176.945 190.933 175.98 191.898 174.789 191.898C173.598 191.898 172.633 190.933 172.633 189.742V183.992C172.633 182.801 173.598 181.836 174.789 181.836Z" fill="#305680"/>
<path fill-rule="evenodd" clip-rule="evenodd" d="M174.969 181.926C177.152 181.926 178.922 180.156 178.922 177.973C178.922 175.789 177.152 174.02 174.969 174.02C172.785 174.02 171.016 175.789 171.016 177.973C171.016 180.156 172.785 181.926 174.969 181.926ZM174.969 186.238C179.534 186.238 183.234 182.538 183.234 177.973C183.234 173.408 179.534 169.707 174.969 169.707C170.404 169.707 166.703 173.408 166.703 177.973C166.703 182.538 170.404 186.238 174.969 186.238Z" fill="#305680"/>
<path d="M0 212H43" stroke="#91A3BE" stroke-width="1.5"/>
<line x1="150.75" y1="24" x2="150.75" y2="104" stroke="#91A3BE" stroke-width="1.5"/>
<path d="M42.0002 212.725C41.9706 198.346 44.7736 184.101 50.2492 170.804C55.7247 157.508 63.7655 145.42 73.9126 135.231C84.0597 125.042 96.1142 116.952 109.388 111.422C122.662 105.891 136.895 103.03 151.275 103L151.278 104.552C137.102 104.581 123.071 107.402 109.985 112.854C96.8993 118.306 85.0156 126.282 75.0123 136.327C65.0091 146.371 57.0822 158.287 51.6843 171.395C46.2864 184.503 43.5231 198.546 43.5523 212.722L42.0002 212.725Z" fill="#91A3BE"/>
<circle cx="151" cy="12" r="11.25" fill="#F7F9FC" stroke="#91A3BE" stroke-width="1.5"/>
</svg>
